public/assets/images/icons/white/question-text.svg

<svg viewBox="0 0 64 64" xmlns="http://www.w3.org/2000/svg" xml:space="preserve" fill-rule="evenodd" clip-rule="evenodd" stroke-linejoin="round" stroke-miterlimit="2"><path fill="none" d="M0 0h64v64H0z"/><g fill="#fff"><path d="M4 14v36h56V14H4Zm53 33H7V17h50v30Z" fill-rule="nonzero"/><path d="M35.05 36h2v-2h-2V22.06h-2V34h-2v2h2v6h-4v2h4v-1.94h2V44h4v-2h-4v-6Z" fill-rule="nonzero"/><path d="M29.05 20h4v2h-4zm6 0h4v2h-4z"/><path d="m20.87 24-.69-2H15v2h2.14l-5.5 16H9v2h3.75c.2 0 .37-.07.5-.2.14-.13.23-.28.28-.45l1.61-4.83h7.72l1.61 4.83c.06.19.16.34.29.46.13.12.3.18.5.18H29v-2h-2.63l-5.5-16V24Zm-5.08 10.58 2.7-8.12c.18-.5.35-1.13.52-1.88a19.542 19.542 0 0 0 .5 1.87l2.7 8.14h-6.42v-.01Z" fill-rule="nonzero"/></g></svg>

<?xml version="1.0" encoding="UTF-8" standalone="no"?>
<!DOCTYPE svg PUBLIC "-//W3C//DTD SVG 1.1//EN" "http://www.w3.org/Graphics/SVG/1.1/DTD/svg11.dtd">
<svg width="100%" height="100%" viewBox="0 0 64 64" version="1.1" xmlns="http://www.w3.org/2000/svg" xmlns:xlink="http://www.w3.org/1999/xlink" xml:space="preserve" xmlns:serif="http://www.serif.com/" style="fill-rule:evenodd;clip-rule:evenodd;stroke-linejoin:round;stroke-miterlimit:2;">
    <g id="c">
        <rect x="0" y="0" width="64" height="64" style="fill:none;"/>
    </g>
    <g id="d">
        <g id="e">
            <path d="M4,14L4,50L60,50L60,14L4,14ZM57,47L7,47L7,17L57,17L57,47Z" style="fill:white;fill-rule:nonzero;"/>
            <g>
                <path d="M35.05,36L37.05,36L37.05,34L35.05,34L35.05,22.06L33.05,22.06L33.05,34L31.05,34L31.05,36L33.05,36L33.05,42L29.05,42L29.05,44L33.05,44L33.05,42.06L35.05,42.06L35.05,44L39.05,44L39.05,42L35.05,42L35.05,36Z" style="fill:white;fill-rule:nonzero;"/>
                <rect x="29.05" y="20" width="4" height="2" style="fill:white;"/>
                <rect x="35.05" y="20" width="4" height="2" style="fill:white;"/>
                <path d="M20.87,24L20.18,22L15,22L15,24L17.14,24L11.64,40L9,40L9,42L12.75,42C12.95,42 13.12,41.93 13.25,41.8C13.39,41.67 13.48,41.52 13.53,41.35L15.14,36.52L22.86,36.52L24.47,41.35C24.53,41.54 24.63,41.69 24.76,41.81C24.89,41.93 25.06,41.99 25.26,41.99L29,41.99L29,39.99L26.37,39.99L20.87,23.99L20.87,24ZM15.79,34.58L18.49,26.46C18.67,25.96 18.84,25.33 19.01,24.58C19.09,24.94 19.17,25.29 19.26,25.61C19.35,25.93 19.43,26.21 19.51,26.45L22.21,34.59L15.79,34.59L15.79,34.58Z" style="fill:white;fill-rule:nonzero;"/>
            </g>
        </g>
    </g>
</svg>
